X:1
T:Thy mercy, Jehovah - Marcello
T:James Gibb editions
T:#
%%score [ 1 ( 2 3 ) ] { ( 4 6 ) | ( 5 7 ) }
L:1/8
Q:1/4=120
M:3/4
K:D
V:1 treble-8 nm="Tenor" snm="T"
V:2 treble nm="Bass" snm="B"
V:3 treble 
V:4 treble nm="MusicXML Part"
V:6 treble 
V:5 bass 
V:7 bass 
V:1
"^Psalm 36 vv 5-7 & 9\nParaphrase by: Garth & Avison (1757)" z6 |: %1
w: |
w: |
 z2"^Solo" z2"^Thy mercy, Jehovah" A2 | F2 D2 d2 | (ec) d2 z B | (G2 e3) G | %5
w: Thy|mer- cy, Je-|ho­ * vah is|in * the|
w: O|Lord, thou pre-|ser­ * vest both|man * and|
 ((FE) D2) z"^Benedetto Marcello\n( 1686-1739)" A x2 | d2 d2 d2 x2 | d2 c2 z A x2 | e2 e2 e2 x2 | %9
w: hea­ * vens: thy|faith- ful- ness|reach- eth, thy|faith- ful- ness|
w: beast: * * how|great is thy|mer- cy, how|great is thy|
 e2 d2 z A | f2 f2 f2 | f2 e2 z d | (cd) (TB3 A) | A4 ||"^Chorus" A2 | F2 D2 d2 | (ec) d2 z B | %17
w: rea- cheth, thy|faith- ful- ness|reach- eth un-|to * the *|clouds.|Thy|mer- cy, Je-|ho­ * vah is|
w: mer- cy, how|great is thy|mer- cy, O|Lord * most *|high.|O|Lord, thou pre-|ser­ * vest both|
 (G2 e3) G | ((FE) D2) z A | d2 d2 d2 | d2 c2 z A | e2 e2 e2 | e2 d2 z A | f2 f2 f2 | f2 e2 z d | %25
w: in * the|hea­ * vens: thy|faith- ful- ness|reach- eth, thy|faith- ful- ness|reach- eth, thy|faith- ful- ness|reach- eth un-|
w: man * and|beast: * * how|great is thy|mer- cy, how|great is thy|mer- cy, how|great is thy|mer- cy, O|
 (cd) (B3 A) | A4 A2 | d2 d2 d2 | (dc) B2 B2 | e2 e2 e2 | ((ed) c2) c2 | f2 f2 f2 | ((fe) d2) d2 | %33
w: to * the *|clouds. Thy|righ- teous- ness|stan­ * deth like|as the strong|mou­ * ntains, like|as the strong|mou­ * ntains thy|
w: Lord * most *|high. With|thee is the|foun­ * tain, the|fou- ntain of|life, * * the|fou- ntain of|life; * * and|
 (e4 e2) | A4 d2 | e2 (c3 d) x2 | d4 z2 x2 | z2"^Chorus" z2 A2 | d2 d2 d2 x2 | (dc) B2 B2 x2 | %40
w: judge­ *|ments are|a great *|deep.|Thy|righ- teous- ness|stan­ * deth like|
w: in thy|light shall|we see *|light.|With|thee is the|foun­ * tain, the|
 e2 e2 e2 x2 | ((ed) c2) c2 x2 | f2 f2 f2 | (fe) d2 d2 | (e4 e2) | A4 d2 | e2 (c3 d) x2 |1 %47
w: as the strong|moun­ * tains, like|as the strong|mou- * ntains thy|judge­ *|ments are|a great *|
w: fou- ntain of|life, * * the|fou- ntain of|life; * * and|in thy|light shall|we see *|
 d4 z2 :|2 d6 || z6 | z6 | z6 |] %52
w: deep.|||||
w: |light.||||
V:2
 z6 |: z6 | z6 | z6 | z6 | z6 x2 | z6 x2 | z6 x2 | z6 x2 | z6 | z6 | z6 | z6 | z2 z2 || %14
w: ||||||||||||||
w: ||||||||||||||
"^1st bass optional" E,2 | F,2 A,3 A, | A,2 A,2 z F, | (G,2 A,3) A, | ((A,G,) F,2) z A, | %19
w: |||||
w: |||||
 B,2 B,2 B,2 | B,2 A,2 z A, | B,2 B,2 A,G, | G,2 F,2 z A, | D2 D2 D2 | D2 C2 z ^G, | %25
w: ||||||
w: ||||||
 A,2 (A,2 ^G,2) | A,4 z2 | z2 z2"^Solo" D,2 | (G,A,) (G,F,) (E,D,) | E,2 E,2 E,2 | %30
w: ||Thy|righ­ * teous­ * ness *|stan- deth like|
w: ||O|Lord, * thou * pre- *|ser­ vest both|
 (A,B,) (A,G,) (F,E,) | (F,2 F,2) F,2 | ((B,C B,A,) (G,F,) | (G,>A, G,F, E,)D, | %34
w: as * the * strong *|moun- tains, thy|judge­ * * * * *||
w: man * and * beast: *|how * great|is * * * thy *|mer- * * * * *|
 (C,B,, A,,2)) F,2 | x8 | x8 | z6 | x4"^Chorus" F,2 x2 | B,2 B,2 B,2 x2 | (B,A,) ^G,2 G,2 x2 | %41
w: ments * * are|||||||
w: * * * cy,|||||||
 C2 C2 C2 x2 | ((CB,) ^A,2) A,2 | (D4 D2 | DC B,A, G,F,) | (F,2 A,2) A,2 | B,2 (A,2 G,2) x2 |1 %47
w: |||||* great *|
w: |||||* pre- *|
 F,4 z2 :|2 F,6 || z6 | z6 | z6 |] %52
w: deep.|||||
w: |vest||||
V:3
 x6 |: x6 | x6 | x6 | x6 | x8 | x8 | x8 | x8 | x6 | x6 | x6 | x6 | x4 || A,,2 | D,2 F,3 D, | %16
w: ||||||||||||||||
w: ||||||||||||||||
 A,2 F,2 z D, | (E,2 C,3) C, | (D,2 D,2) z F, | B,2 B,2 B,2 | E,2 A,2 z A, | (G,F,) (G,A,) (B,C) | %22
w: ||||||
w: ||||||
 D2 D,2 z D, | D,2 ^G,,2 G,,2 | A,,2 A,2 z B, | A,2 E,4 | A,,4 x2 | x6 | x6 | x6 | x6 | x6 | x6 | %33
w: |||||||||||
w: |||||||||||
 x6 | x6 | x2 G,2 A,4 | x2 D,4 z2 | x6 | z2 z2 D,2 x2 | (G,A,) (G,F,) (E,D,) x2 | E,2 E,2 E,2 x2 | %41
w: ||a great|deep.||Thy|righ­ * teous­ * ness *|stan- deth like|
w: ||how great|is||thy|mer- * cy, * how *|great is thy|
 (A,B,) (A,G,) (F,E,) x2 | (F,2 F,2) F,2 | (B,C B,A,) (G,F,) | (G,>A, G,F, E,D, | %45
w: as * the * strong *|moun- tains, thy|judge * * * * *||
w: mer- * cy, * O *|Lord * most|high. * * * O *|Lord, * * * * *|
 (C,B,, A,,2)) F,2 | G,2 A,4 x2 |1 D,6 :|2 D,6 || x6 | x6 | x6 |] %52
w: ments * * are|a *||||||
w: * * * thou|ser­ *||||||
V:4
 [A,DF]2 [F,A,D]2 z2 |: [EAc]2 [CEA]2 z2 | [DFA]2 [A,DF]2 z2 | [CE]2 [A,DF]2 z2 | E4 E2 | %5
 [A,DF]2 [DFA]2 z2 x2 | [DEB]6 x2 | [DE]2 [CEA]2 z2 x2 | [EB]4 [EGA]2 x2 | [GA]2 [FAd]2 z2 | %10
 B4 ^GB | A4 B2 | A3 ^G/F/ TG2 | [CA]4 || z2 | [DFA]2 [A,DF]2 z2 | [CE]2 [A,DF]2 z2 | E4 E2 | %18
 [A,DF]2 [DFA]2 z2 | [DEB]6 | [DE]2 [CEA]2 z2 | [EB]4 [EGA]2 | [GA]2 [FAd]2 z2 | B4 ^GB | A4 B2 | %25
 A3 ^G/F/ TG2 | [CA]4 [CA]2 | [DF]2 z2 [DA]2 | [DB]2 z2 [DB]2 | [B,^G]2 z2 [EB]2 | [Ec]2 z2 [Ec]2 | %31
 [C^A]2 z2 [Fc]2 | [Fd]2 z2 [Fd]2 | [EBe]6- | [EBe]2 [EAc]2 [FAd]2 | [EGB]2 A2 G2 x2 | %36
 [A,DF]4 z2 x2 | [CE]4 AG | F[EG] [DF][CE] [B,D][A,C] x2 | B,A, B,C DB, x2 | %40
 [E^G][FA] [EG][DF] C[B,D] x2 | CB, CD EC x2 | [F^A][GB] [FA][E^G] [DF][CE] | DC DE FD | %44
 GF ED CB, | A,G FE D2- | DG TE3 D x2 |1 D2 [DFA]2 z2 :|2 [FAd]2 [DFA]2 z2 || [cea]2 [Ace]2 z2 | %50
 f2 e2 Tc2 | [FAd]6 |] %52
V:5
 D,C, D,E, F,D, |: A,,^G,, A,,B,, C,A,, | D,C, D,E, F,D, | A,G, F,E, F,D, | E,D, C,B,, C,A,, | %5
 x2 D,C, D,E, F,D, | x2 ^G,,F,, G,,A,, B,,G,, | x2 A,,^G,, A,,B,, C,A,, | %8
 x2 !courtesy!=G,,F,, G,,A,, B,,C, | D,C, D,E, F,D, | ^G,,F,, G,,A,, B,,G,, | A,,^G,, A,,A, ^G,E, | %12
 A,D, E,2 E,,2 | A,,^G,, A,,B,, || C,A,, | D,C, D,E, F,D, | A,G, F,E, F,D, | E,D, C,B,, C,A,, | %18
 D,C, D,E, F,D, | ^G,,F,, G,,A,, B,,G,, | A,,^G,, A,,B,, C,A,, | =G,,F,, G,,A,, B,,C, | %22
 D,C, D,E, F,D, | ^G,,F,, G,,A,, B,,G,, | A,,^G,, A,,A, ^G,E, | A,D, E,2 E,,2 | A,B, A,=G, F,E, | %27
 D,C, D,E, F,D, | G,A, G,F, E,D, | E,D, E,F, ^G,E, | A,B, A,=G, F,E, | F,E, F,^G, ^A,F, | %32
 B,C B,=A, =G,F, | G,>A, G,F, E,D, | C,B,, A,,G,, F,,D,, | G,E, A,2 A,,2 x2 | D,C, D,E, F,D, x2 | %37
 A,B, A,G, F,E, | x2 D,C, D,E, F,D, | x2 G,A, G,F, E,D, | x2 E,D, E,F, ^G,E, | x2 A,B, A,=G, F,E, | %42
 F,E, F,^G, ^A,F, | B,C B,=A, =G,F, | G,>A, G,F, E,D, | C,B,, A,,G,, F,,D,, | G,E, A,2 A,,2 x2 |1 %47
 D,C, D,E, F,D, :|2 D,C, D,E, F,D, || A,,^G,, A,,B,, C,A,, | D,2 !courtesy!=G,,2 A,,2 | D,,6 |] %52
V:6
 x6 |: x6 | x6 | x6 | B,2 A,4 | x8 | x8 | x8 | x8 | x6 | D6 | D2 C2 E2- | EF E3 TD | x4 || x2 | %15
 x6 | x6 | B,2 A,4 | x6 | x6 | x6 | x6 | x6 | D6 | D2 C2 E2- | EF E3 TD | x6 | x6 | x6 | x6 | x6 | %31
 x6 | x6 | x6 | x6 | x2 [CE]4 x2 | x8 | x6 | x8 | x8 | x8 | x8 | x6 | x6 | x6 | x4 DC | %46
 B,2 C4 x2 |1 x6 :|2 x6 || x6 | [Ad]2 [GB]2 [EA]2 | x6 |] %52
V:7
 x6 |: x6 | x6 | x6 | x6 | x8 | x8 | x8 | x8 | x6 | x6 | x6 | x6 | x4 || x2 | x6 | x6 | x6 | x6 | %19
 x6 | x6 | x6 | x6 | x6 | x6 | x6 | x6 | x6 | x6 | x6 | x6 | x6 | x6 | x6 | x6 | x8 | x8 | x6 | %38
 x8 | x8 | x8 | x8 | x6 | x6 | x6 | x6 | x8 |1 x6 :|2 D2 x4 || x6 | x6 | x6 |] %52

